images/logo.svg

<svg width="139" height="70" viewBox="0 0 139 70" fill="none" xmlns="http://www.w3.org/2000/svg">
<path d="M139 0H0L59.9312 65.6531C65.1688 71.449 73.8312 71.449 79.0688 65.6531L139 0Z" fill="#81B3D3"/>
<path d="M36.804 0.49745L68.9951 38.2042L101.086 0.696431L36.804 0.49745Z" fill="#23A9E1"/>
<path d="M61.2734 14.625H78.6225C77.3188 13.829 74.21 10.0484 72.6055 11.4413C72.5052 11.5408 67.6916 5.77035 64.5828 8.55607C61.8751 11.0433 60.5714 8.2576 57.5629 10.1479C53.9527 12.5357 59.5686 13.829 61.2734 14.625ZM88.0492 11.1428L78.2214 11.2423C82.1324 6.76525 83.8373 7.2627 88.0492 11.1428Z" fill="white"/>
<path d="M97.8768 3.58164V1.19388H99.9827L97.8768 3.58164ZM48.5371 12.9337C48.6374 13.0332 50.9439 10.5459 54.6544 8.0587C58.0641 5.77043 63.2788 3.18368 69.0953 3.18368C74.9118 3.18368 80.2268 5.86992 83.6365 8.15819C87.347 10.5459 89.6535 12.9337 89.7538 13.0332L87.2467 16.0179C82.7339 16.6148 79.5248 19.898 75.1123 19.2016C72.9061 18.8036 72.8058 17.6097 72.2041 16.3164C71.7027 15.3215 70.9004 15.5205 69.8976 15.1225C68.995 14.7245 68.3933 14.0281 66.4879 14.4261C64.8834 14.824 64.6828 17.3113 62.5769 17.2118C61.4737 17.1123 61.3734 15.6199 59.7689 13.6301C55.6573 8.75513 51.8465 9.45156 49.2391 13.9286L68.8947 37.1098L48.5371 12.9337ZM40.1133 1.19388V3.08419L38.5087 1.19388H40.1133ZM94.1663 1.19388H97.3753V4.17858L94.1663 7.95921V1.19388ZM90.0546 12.5358V1.19388H93.5646V8.55615L90.0546 12.5358C90.0546 12.5358 90.1549 12.5358 90.0546 12.5358ZM89.5532 2.18878V12.0383C88.4501 10.9439 87.2467 9.94901 85.943 9.0536L89.5532 2.18878ZM85.4416 1.89031V8.65564C84.9401 8.35717 84.539 7.95921 83.9373 7.66074C83.2353 7.26278 82.5333 6.76533 81.7311 6.36737L85.4416 1.89031ZM81.0291 1.69133V5.96941C80.0262 5.47195 78.9231 4.9745 77.9203 4.47705L81.0291 1.69133ZM81.6308 1.19388H85.3413L81.6308 5.77043V1.19388ZM85.943 1.19388H89.5532L85.943 8.25768V1.19388ZM77.118 1.19388H81.0291L77.5191 4.27807C77.4189 4.27807 77.3186 4.17858 77.2183 4.17858L77.118 1.19388ZM76.6166 1.59184V3.9796C75.6138 3.58164 74.6109 3.28317 73.5078 3.08419L76.6166 1.59184ZM72.4047 1.59184V2.88521C71.7027 2.78572 71.0007 2.68623 70.1984 2.58674L72.4047 1.59184ZM65.5854 1.59184L67.7916 2.58674C66.9893 2.58674 66.2874 2.68623 65.5854 2.88521V1.59184ZM61.4737 1.59184L64.5825 3.08419C63.4794 3.28317 62.4766 3.58164 61.4737 3.9796V1.59184ZM65.084 2.78572L61.7746 1.19388H65.084V2.78572ZM68.5939 2.38776L65.7859 1.09439H68.5939V2.38776ZM69.2959 1.19388H72.2041L69.2959 2.48725V1.19388ZM73.0064 1.19388H76.2155L73.0064 2.78572V1.19388ZM60.5712 4.27807L57.0612 1.19388H60.9723V4.17858L60.5712 4.27807ZM56.961 1.69133L60.0698 4.37756C58.9666 4.77552 57.9638 5.27297 56.961 5.86992V1.69133ZM52.6488 1.89031L56.259 6.36737C54.9553 7.0638 53.7519 7.85972 52.6488 8.75513V1.89031ZM48.4368 2.18878L52.0471 9.15309C50.7434 10.148 49.54 11.1429 48.4368 12.3368V2.18878ZM52.1473 8.15819L48.5371 1.09439H52.1473V8.15819ZM56.4595 5.67093L52.749 1.09439H56.4595V5.67093ZM43.8238 7.46176L40.6147 3.68113V1.19388H43.8238V7.46176ZM44.4255 1.19388H47.9354V12.3368L44.4255 8.15819V1.19388ZM69.2959 0H36.1019V14.5256L68.995 54.2221L69.1956 53.9236L102.289 14.9235V0H69.2959Z" fill="#491213"/>
<path d="M66.3877 45.7655L68.9951 41.5869L71.6025 45.7655L68.9951 49.9441L66.3877 45.7655Z" fill="#23A9E1"/>
<path d="M74.4106 30.4439C71.001 28.4541 71.8033 26.9618 74.6112 25.5689C76.1155 24.8725 79.4248 22.1862 80.7285 23.0817L74.4106 30.4439ZM72.1041 32.9312C70.0984 32.8317 67.7919 32.5332 65.7862 33.0307C66.9896 33.3291 69.9981 34.2245 67.1902 34.921C68.193 36.3138 69.7976 36.2144 70.8004 35.0205C70.3993 34.8215 70.0984 34.523 69.7976 34.324C70.9007 34.0256 71.9035 33.4286 72.1041 32.9312ZM73.3075 31.3393C72.405 30.5434 71.4021 30.5434 70.5998 31.3393C69.3964 29.25 65.1845 29.9465 63.1788 29.648C64.282 32.2347 72.8061 32.7322 73.3075 31.3393ZM66.4882 29.1506C64.8837 28.6531 59.6689 28.7526 63.0786 27.3597C64.1817 26.9618 69.7976 27.4592 66.4882 29.1506ZM68.4939 26.1659C67.9925 25.0715 68.895 23.7781 70.1987 24.773C71.4021 25.5689 69.597 26.7628 68.4939 26.1659ZM65.5857 26.2653C63.2791 26.9618 60.2706 25.4694 63.9811 24.773C66.2876 24.2755 68.6945 25.2704 65.5857 26.2653C65.4854 26.2653 65.6859 26.2653 65.5857 26.2653ZM62.9783 20.097C62.4769 21.6888 61.474 21.9873 61.5743 20.097C61.6746 17.8087 63.1788 18.4056 64.7834 17.5102C66.0871 16.8138 66.7891 14.1276 69.0956 15.7194C70.0984 16.4158 71.3018 15.8189 71.6027 16.9133C71.6027 16.8138 68.6945 23.5791 70.299 23.5791C67.0899 23.5791 68.4939 19.7985 69.6973 17.2117C68.4939 17.8087 66.5885 21.4898 68.193 22.1862C67.3908 23.2806 64.7834 24.773 63.4797 23.6786C62.3766 22.6837 62.9783 21.3903 62.9783 20.097ZM58.9669 22.8827C53.351 22.8827 57.1618 14.3265 59.0672 14.824C61.2735 15.5204 60.9726 22.9822 58.9669 22.8827ZM52.7493 14.7245C50.1419 14.625 51.2451 12.1377 53.0502 11.6403C54.755 11.1428 58.2649 12.7347 59.4683 13.8291C57.6632 14.426 55.3567 14.3265 53.351 14.426C53.1505 12.4362 52.649 13.1326 52.7493 14.7245Z" fill="#DC6243"/>
<path d="M72.0039 25.6685C69.0957 22.6838 76.3161 22.9823 77.5195 21.8879C78.3218 22.1864 84.5394 16.5155 86.0437 16.9134C84.9406 18.2068 82.634 22.1864 81.0295 22.1864C79.7258 22.1864 78.4221 21.9874 77.4193 22.8828C75.915 24.2757 73.5082 24.9721 72.0039 25.6685Z" fill="#F49774"/>
<path d="M72.906 22.0868C71.3015 22.9822 69.7972 19.5996 72.6052 19.898C74.4103 20.097 76.3157 19.6991 78.0205 19.9975C76.7168 21.4899 74.9117 22.2858 72.906 22.0868Z" fill="#F4B1A4"/>
<path d="M51.2452 20.7935C51.546 21.1915 51.8469 21.5894 51.7466 22.1864C51.7466 22.5843 51.1449 23.1813 51.546 23.3803L53.0503 21.5894C52.6492 21.4899 49.5404 17.8088 49.5404 17.4108L47.4344 18.5052C47.5347 18.9032 48.2367 18.5052 48.6378 18.5052C49.1392 18.5052 49.5404 18.9032 49.9415 19.2017C48.8384 20.0971 46.1307 22.4848 45.8299 22.4848C45.7296 22.4848 45.1279 22.0869 45.1279 22.4848C45.1279 22.6838 45.7296 23.1813 45.8299 23.2808L47.2338 24.9721C47.635 24.7731 47.1336 24.4746 47.3341 24.1762C47.4344 23.9772 50.5432 21.4899 51.2452 20.7935ZM47.8355 16.3165C48.1364 16.217 48.2367 16.6149 48.4372 16.3165L46.8327 14.4261C46.6321 14.1277 46.3313 13.8292 46.3313 14.4261C46.4316 14.8241 42.3199 18.1073 42.1194 18.2068C41.8185 18.3063 41.6179 17.9083 41.4174 18.3063C41.9188 18.9032 42.3199 19.4007 42.8214 19.9976C43.0219 20.1966 43.1222 20.3956 43.3228 20.5945C43.5233 20.7935 43.4231 20.1966 43.4231 20.1966C43.3228 19.8981 43.7239 19.5996 44.0248 19.4007C45.0276 18.4057 47.5347 16.3165 47.8355 16.3165ZM42.1194 15.7195C41.0162 16.018 39.7126 15.62 39.4117 14.4261C39.0106 13.2323 39.8128 12.0384 40.7154 11.342C41.6179 10.6455 43.0219 10.745 43.5233 11.8394C43.7239 12.3369 43.6236 12.9338 43.4231 13.4312C43.3228 13.7297 43.0219 14.0282 43.4231 14.2272C44.0248 13.5307 44.5262 12.8343 45.1279 12.1379C44.4259 11.7399 44.125 11.0435 43.6236 10.4465C43.0219 9.75011 42.3199 9.05368 41.3171 8.95419C39.4117 8.65572 37.7069 10.6455 37.5063 12.3369C37.406 13.2323 37.7069 14.1277 38.3086 14.9236C38.81 15.5205 39.512 16.018 39.9131 16.7144C40.1137 16.8139 41.7182 16.018 42.0191 15.9185C42.2196 15.9185 42.1194 15.819 42.1194 15.7195C42.1194 15.7195 41.6179 15.9185 42.1194 15.7195ZM67.6917 39.1992C66.9898 38.7017 65.0844 36.2145 64.6832 35.717L64.4827 35.4186L64.2821 35.518C64.1818 35.6175 64.3824 35.916 64.2821 36.115C63.7807 36.9109 60.5716 39.2987 60.371 39.4976C59.9699 39.6966 59.5687 39.3982 59.3682 39.6966C59.8696 40.2936 61.1733 41.9849 61.3739 41.9849C61.6747 41.9849 61.4741 41.4874 61.4741 41.388C61.5744 41.189 63.179 39.7961 63.7807 39.2987C63.9812 39.0997 64.1818 39.5971 64.3824 39.7961C64.5829 40.0946 64.6832 40.4925 64.5829 40.791C64.4827 40.99 64.0815 41.388 64.3824 41.5869C64.7835 41.0895 65.8866 39.7961 66.0872 39.5971C66.2878 39.3982 65.6861 39.5971 65.7863 39.4976C65.5858 39.5971 65.2849 39.6966 65.0844 39.4976C64.9841 39.4976 64.3824 38.8012 64.4827 38.7017C64.7835 38.5027 65.0844 38.1048 65.4855 38.0053C66.0872 37.9058 66.4883 39.0002 66.5886 39.3982C66.6889 39.7961 66.6889 40.1941 66.4883 40.4925C66.3881 40.791 66.1875 40.99 66.4883 41.0895L67.8923 39.1992C67.8923 39.2987 67.792 39.2987 67.6917 39.1992C67.792 39.2987 67.5915 39.1992 67.6917 39.1992ZM58.4656 30.3446C57.7636 30.3446 57.0617 30.643 56.4599 31.1405C55.056 32.3344 54.8554 34.4237 55.9585 35.916C57.2622 37.6073 59.3682 37.8063 61.073 36.6124C62.477 35.4186 62.6775 33.3293 61.5744 31.8369C60.7722 30.842 59.5687 30.3446 58.4656 30.3446ZM59.669 31.7374C60.5716 31.6379 61.1733 32.5333 60.7722 33.5282C60.371 34.5231 59.3682 35.518 58.3653 35.916C57.1619 36.4135 56.3597 35.4186 56.8611 34.2247C57.2622 33.2298 58.2651 32.2349 59.2679 31.8369C59.3682 31.8369 59.4685 31.7374 59.669 31.7374ZM56.8611 27.1609C57.1619 27.1609 57.4628 27.5588 57.6634 27.1609L56.2594 25.4695C55.8582 25.6685 56.2594 25.8675 56.1591 26.0665C55.9585 26.365 54.4543 26.5639 54.0531 26.6634C54.1534 26.2655 54.6548 24.9721 54.8554 24.8726C55.2565 24.5741 55.4571 25.1711 55.6577 24.7731L53.8526 22.6838C53.652 22.4848 53.4514 21.9874 53.2509 22.2859C53.2509 22.2859 53.2509 23.2808 53.1506 23.3803C53.0503 23.5792 52.5489 25.768 51.9472 26.2655C51.6463 26.5639 50.4429 27.5588 50.1421 27.6583C49.8412 27.7578 49.6407 27.2604 49.3398 27.6583L50.9443 29.5486C51.0446 29.6481 51.3455 30.1456 51.4458 30.1456C51.7466 30.2451 51.4458 29.5486 51.546 29.4491C51.6463 29.1507 53.1506 27.6583 53.8526 27.5588C54.7551 27.3599 55.8582 27.0614 56.8611 27.1609C56.6605 27.1609 57.0617 27.1609 56.8611 27.1609ZM81.1298 33.8267C81.2301 34.2247 81.3303 34.7221 81.2301 35.1201C81.1298 35.717 80.6284 37.0104 79.8261 36.6124C79.0238 36.2145 78.4221 35.518 77.7201 34.9211C78.2215 34.3242 78.723 33.8267 79.6255 34.1252C79.8261 34.2247 80.0266 34.1252 79.8261 33.9262C79.5252 33.7272 77.8204 32.6328 77.7201 32.7323C77.5196 32.9313 78.021 33.3293 77.8204 33.7272C77.7201 34.0257 77.4193 34.2247 77.2187 34.5231C76.7173 34.1252 76.0153 33.7272 76.5167 33.0308C76.9179 32.6328 77.319 32.2349 77.9207 32.1354C78.3218 32.0359 79.1241 32.4339 79.2244 32.0359C78.5224 31.7374 77.8204 31.3395 77.1184 31.041C77.2187 31.5384 74.9122 33.9262 74.4108 34.5231C74.3105 34.6226 74.0096 34.9211 74.0096 35.0206C74.0096 35.3191 74.4108 35.1201 74.4108 35.1201C74.7116 35.0206 78.8232 38.4033 78.9235 38.7017C79.0238 38.9007 78.8232 39.0997 78.9235 39.1992C78.9235 39.1992 79.0238 39.2987 79.1241 39.2987C79.4249 39.0002 82.0323 35.4186 82.634 35.3191C82.1326 34.5231 81.6312 33.7272 81.1298 32.9313C80.7286 33.1303 81.0295 33.6277 81.1298 33.8267ZM77.1184 38.2043C75.8147 37.3089 73.5082 39.0002 73.1071 39.1992C72.4051 39.4976 71.9037 38.8012 72.3048 38.2043C72.6056 37.7068 73.2073 37.4084 73.8091 37.4084C74.0096 37.4084 74.7116 37.5078 74.7116 37.4084C74.8119 37.3089 74.8119 37.3089 74.7116 37.2094C74.1099 36.8114 73.6085 36.4135 73.0068 36.115C72.9065 36.8114 72.1042 37.2094 71.7031 37.7068C71.2017 38.3038 70.7003 39.0002 70.7003 39.6966C70.7003 40.3931 71.1014 41.0895 71.8034 41.388C72.5054 41.7859 73.3076 41.4874 74.0096 41.0895C74.4108 40.791 74.8119 40.4925 75.213 40.2936C75.8147 39.9951 76.7173 40.2936 76.5167 41.0895C76.3162 41.7859 75.6142 42.3829 74.9122 42.5818C74.511 42.6813 74.1099 42.6813 73.7088 42.4824C73.4079 42.3829 73.1071 41.9849 72.9065 42.3829L75.213 43.9747C75.3133 43.4773 75.5139 43.2783 75.915 42.9798C76.4164 42.5818 76.8176 42.0844 77.2187 41.5869C78.021 40.6915 78.3218 39.0997 77.1184 38.2043ZM94.7684 10.2476C94.7684 10.3471 94.7684 10.3471 94.7684 10.2476L93.8658 11.2425L93.0635 12.2374C92.863 12.4363 92.7627 12.5358 93.0635 12.7348C93.565 12.4363 96.5735 17.5103 96.3729 18.2068C95.8715 18.4057 91.8601 14.9236 91.7599 14.7246C91.7599 14.6251 91.9604 14.0282 91.6596 14.1277C91.5593 14.1277 91.1582 14.7246 91.0579 14.8241L90.4562 15.5205C90.6567 15.819 90.757 15.5205 91.0579 15.5205C91.2584 15.62 92.2613 16.4159 92.5621 16.6149C92.0607 16.6149 90.8573 16.7144 90.6567 16.7144C90.055 16.8139 90.3559 16.3165 89.9547 16.1175L88.4505 17.9083L87.5479 18.9032C87.5479 18.9032 87.5479 18.9032 87.5479 19.0027C87.7485 19.2017 87.6482 19.1022 87.9491 19.0027C88.2499 18.9032 92.2613 22.1864 92.3616 22.3854C92.5621 22.6838 92.2613 22.9823 92.6624 23.1813L93.8658 21.7884C93.9661 21.6889 93.9661 21.6889 93.8658 21.6889C93.565 21.4899 93.565 21.7884 93.1638 21.7884C92.863 21.6889 90.2556 19.5996 89.353 18.8037L94.6681 18.6047C94.8687 18.6047 95.3701 19.2017 95.3701 19.4007C95.2698 19.5996 95.0692 19.7986 95.3701 19.8981C95.6709 19.5001 95.9718 19.2017 96.2726 18.8037L96.3729 18.6047C96.4732 18.6047 96.4732 18.5052 96.4732 18.4057L96.5735 18.3063C96.8743 18.0078 97.7769 17.0129 97.6766 16.9134C97.3758 16.6149 97.2755 17.2119 96.8743 16.9134C96.6738 16.7144 96.0721 15.7195 95.9718 15.5205C95.7712 15.2221 96.3729 14.9236 96.5735 14.8241C97.0749 14.5256 98.6794 14.0282 98.88 15.0231C98.88 15.2221 98.6794 15.421 98.7797 15.5205C98.7797 15.5205 98.88 15.7195 98.9803 15.62L101.086 13.0333C100.986 12.9338 100.986 12.9338 100.886 12.8343C100.384 13.3318 95.3701 11.342 95.0692 11.0435C94.9689 10.8445 94.9689 10.2476 94.7684 10.2476ZM94.5678 12.8343C95.3701 13.1328 96.0721 13.4312 96.8743 13.8292C96.6738 13.9287 96.4732 14.0282 96.2726 14.1277C96.0721 14.2272 95.8715 14.4261 95.6709 14.6251L94.5678 12.8343ZM87.9491 20.495C86.8459 20.3956 85.7428 20.893 84.9406 21.7884C83.7371 23.2808 83.8374 25.4695 85.3417 26.6634C86.8459 27.8573 89.0522 27.5588 90.2556 26.166C91.459 24.6736 91.3587 22.4848 89.8545 21.291C89.353 20.893 88.6511 20.5945 87.9491 20.495ZM86.5451 22.0869C87.1468 22.0869 87.8488 22.4848 88.2499 22.7833C89.0522 23.2808 90.4562 24.4746 89.7542 25.4695C89.7542 25.3701 89.8545 25.3701 89.6539 25.569C88.8516 26.365 87.4477 25.6685 86.7457 25.0716C86.0437 24.5741 84.74 23.3803 85.5423 22.3854C85.8431 22.1864 86.144 22.0869 86.5451 22.0869ZM83.4363 26.365C82.2329 26.2655 81.0295 26.8624 80.1269 27.9568C79.5252 28.7527 78.8232 29.4491 78.2215 30.2451C78.4221 30.5435 78.723 30.1456 79.0238 30.3446C79.3247 30.5435 83.1355 33.6277 83.1355 33.8267C83.2357 34.1252 82.9349 34.2247 83.2357 34.4237C83.336 34.5231 86.144 31.041 86.4448 30.444C86.8459 29.3497 86.5451 28.0563 85.6425 27.2604C85.7428 27.3599 85.8431 27.3599 85.6425 27.2604C84.8403 26.6634 84.1383 26.365 83.4363 26.365ZM82.3332 27.9568C82.4335 27.9568 82.5337 27.9568 82.634 27.9568C84.038 28.3548 86.0437 30.0461 84.74 31.5384C84.5394 31.7374 84.74 31.5384 84.3389 31.9364C84.1383 32.1354 80.1269 28.9517 80.3275 28.7527C80.7286 28.2553 81.6312 27.8573 82.3332 27.9568Z" fill="white"/>
</svg>

<svg width="139" height="70" fill="none" xmlns="http://www.w3.org/2000/svg"><path d="M139 0H0l59.93 65.65a12.7 12.7 0 0 0 19.14 0L139 0Z" fill="#81B3D3"/><path d="M36.8.5 69 38.2 101.09.7 36.8.5Z" fill="#23A9E1"/><path d="M61.27 14.63h17.35c-1.3-.8-4.41-4.58-6.01-3.19-.1.1-4.92-5.67-8.03-2.88-2.7 2.48-4-.3-7.02 1.59-3.6 2.39 2 3.68 3.71 4.47Zm26.78-3.49-9.83.1c3.91-4.47 5.62-3.98 9.83-.1Z" fill="white"/><path d="M97.88 3.58V1.2h2.1l-2.1 2.4Zm-49.34 9.35c.1.1 2.4-2.38 6.11-4.87 3.41-2.29 8.63-4.88 14.45-4.88 5.81 0 11.13 2.69 14.54 4.98 3.7 2.39 6.01 4.77 6.11 4.87l-2.5 2.99c-4.52.6-7.73 3.88-12.14 3.18-2.2-.4-2.3-1.59-2.9-2.88-.5-1-1.31-.8-2.31-1.2-.9-.4-1.5-1.1-3.41-.7-1.6.4-1.8 2.9-3.91 2.8-1.1-.1-1.2-1.6-2.81-3.59-4.11-4.87-7.92-4.18-10.53.3L68.89 37.1 48.54 12.93ZM40.1 1.2v1.9l-1.6-1.9h1.6Zm54.06 0h3.2v2.99l-3.2 3.78V1.19Zm-4.12 11.35V1.19h3.51v7.37l-3.5 3.98s.1 0 0 0Zm-.5-10.35v9.85c-1.1-1.1-2.3-2.1-3.6-2.99l3.6-6.86Zm-4.1-.3v6.77c-.51-.3-.91-.7-1.51-1-.7-.4-1.4-.9-2.2-1.3l3.7-4.47Zm-4.42-.2v4.28c-1-.5-2.1-1-3.11-1.5l3.1-2.78Zm.6-.5h3.71l-3.7 4.58V1.19Zm4.31 0h3.61l-3.6 7.07V1.19Zm-8.82 0h3.9l-3.5 3.09c-.1 0-.2-.1-.3-.1l-.1-2.99Zm-.5.4v2.39c-1-.4-2-.7-3.11-.9l3.1-1.49Zm-4.22 0v1.3l-2.2-.3 2.2-1Zm-6.81 0 2.2 1c-.8 0-1.5.1-2.2.3V1.6Zm-4.12 0 3.11 1.5c-1.1.2-2.1.5-3.1.89v-2.4Zm3.61 1.2-3.3-1.6h3.3v1.6Zm3.51-.4-2.8-1.3h2.8v1.3Zm.7-1.2h2.91l-2.9 1.3V1.2Zm3.72 0h3.2L73 2.8V1.2ZM60.57 4.28l-3.5-3.09h3.9v2.99l-.4.1Zm-3.6-2.59 3.1 2.69c-1.1.4-2.1.9-3.1 1.49V1.69Zm-4.32.2 3.6 4.48c-1.3.7-2.5 1.49-3.6 2.39V1.89Zm-4.21.3 3.6 6.96c-1.3 1-2.5 2-3.6 3.19V2.19Zm3.7 5.97-3.6-7.07h3.6v7.07Zm4.32-2.49L52.75 1.1h3.7v4.58Zm-12.64 1.8-3.2-3.79V1.2h3.2v6.27Zm.6-6.28h3.52v11.15l-3.51-4.18V1.19ZM69.3 0H36.1v14.53L69 54.23l.2-.3 33.09-39V0h-33Z" fill="#491213"/><path d="m66.39 45.77 2.6-4.18 2.61 4.18-2.6 4.17-2.61-4.17Z" fill="#23A9E1"/><path d="M74.41 30.44c-3.4-1.99-2.6-3.48.2-4.87 1.5-.7 4.81-3.38 6.12-2.49l-6.32 7.36Zm-2.3 2.5c-2.01-.1-4.32-.4-6.32.1 1.2.29 4.2 1.18 1.4 1.88 1 1.4 2.6 1.3 3.61.1-.4-.2-.7-.5-1-.7 1.1-.3 2.1-.9 2.3-1.39Zm1.2-1.6c-.9-.8-1.9-.8-2.71 0-1.2-2.09-5.42-1.4-7.42-1.7 1.1 2.6 9.63 3.1 10.13 1.7Zm-6.82-2.19c-1.6-.5-6.82-.4-3.41-1.79 1.1-.4 6.72.1 3.4 1.8Zm2-2.98c-.5-1.1.4-2.4 1.7-1.4 1.21.8-.6 2-1.7 1.4Zm-2.9.1c-2.31.7-5.32-.8-1.6-1.5 2.3-.5 4.7.5 1.6 1.5-.1 0 .1 0 0 0Zm-2.61-6.17c-.5 1.59-1.5 1.89-1.4 0 .1-2.3 1.6-1.7 3.2-2.59 1.3-.7 2-3.38 4.32-1.8 1 .7 2.2.1 2.5 1.2 0-.1-2.9 6.67-1.3 6.67-3.21 0-1.8-3.78-.6-6.37-1.2.6-3.11 4.28-1.5 4.98-.8 1.1-3.42 2.58-4.72 1.49-1.1-1-.5-2.29-.5-3.58Zm-4.01 2.78c-5.62 0-1.8-8.55.1-8.06 2.2.7 1.9 8.16-.1 8.06Zm-6.22-8.16c-2.6-.1-1.5-2.58.3-3.08 1.7-.5 5.21 1.1 6.42 2.19-1.8.6-4.11.5-6.12.6-.2-2-.7-1.3-.6.3Z" fill="#DC6243"/><path d="M72 25.67c-2.9-2.99 4.32-2.69 5.52-3.78.8.3 7.02-5.37 8.52-4.98-1.1 1.3-3.4 5.28-5.01 5.28-1.3 0-2.6-.2-3.61.7-1.5 1.39-3.91 2.08-5.42 2.78Z" fill="#F49774"/><path d="M72.9 22.09c-1.6.9-3.1-2.49-.3-2.2 1.81.2 3.72-.2 5.42.1a5.9 5.9 0 0 1-5.11 2.1Z" fill="#F4B1A4"/><path d="M51.25 20.8c.3.4.6.79.5 1.39 0 .4-.6 1-.2 1.19l1.5-1.8c-.4-.09-3.51-3.77-3.51-4.17l-2.1 1.1c.1.4.8 0 1.2 0 .5 0 .9.4 1.3.7-1.1.89-3.8 3.27-4.11 3.27-.1 0-.7-.4-.7 0 0 .2.6.7.7.8l1.4 1.7c.4-.2-.1-.5.1-.8.1-.2 3.21-2.69 3.92-3.39Zm-3.41-4.48c.3-.1.4.3.6 0l-1.6-1.9c-.2-.3-.5-.6-.5 0 .1.4-4.02 3.69-4.22 3.79-.3.1-.5-.3-.7.1l1.4 1.69c.2.2.3.4.5.6.2.2.1-.4.1-.4-.1-.3.3-.6.6-.8 1-1 3.51-3.08 3.82-3.08Zm-5.72-.6c-1.1.3-2.4-.1-2.7-1.3-.4-1.19.4-2.38 1.3-3.08.9-.7 2.3-.6 2.8.5.2.5.1 1.1-.1 1.6-.1.29-.4.59 0 .79.6-.7 1.1-1.4 1.7-2.1-.7-.39-1-1.09-1.5-1.68-.6-.7-1.3-1.4-2.3-1.5-1.9-.3-3.61 1.7-3.81 3.39-.1.9.2 1.79.8 2.58.5.6 1.2 1.1 1.6 1.8.2.1 1.8-.7 2.1-.8.21 0 .1-.1.1-.2 0 0-.5.2 0 0ZM67.69 39.2c-.7-.5-2.6-2.99-3-3.48l-.2-.3-.2.1c-.1.1.1.4 0 .6-.5.8-3.72 3.18-3.92 3.38-.4.2-.8-.1-1 .2.5.6 1.8 2.28 2 2.28.3 0 .1-.5.1-.6.1-.2 1.7-1.58 2.31-2.08.2-.2.4.3.6.5.2.3.3.7.2 1-.1.19-.5.59-.2.79.4-.5 1.5-1.8 1.7-2 .2-.2-.4 0-.3-.1-.2.1-.5.2-.7 0-.1 0-.7-.69-.6-.79.3-.2.6-.6 1-.7.6-.1 1 1 1.1 1.4.1.4.1.8-.1 1.1-.1.3-.3.49 0 .59l1.41-1.9c0 .1-.1.1-.2 0 .1.1-.1 0 0 0Zm-9.22-8.86c-.7 0-1.4.3-2.01.8a3.52 3.52 0 0 0-.5 4.78c1.3 1.69 3.4 1.89 5.11.7 1.4-1.2 1.6-3.3.5-4.78-.8-1-2-1.5-3.1-1.5Zm1.2 1.4c.9-.1 1.5.8 1.1 1.79-.4 1-1.4 1.99-2.4 2.39-1.2.5-2.01-.5-1.5-1.7.4-.99 1.4-1.99 2.4-2.38.1 0 .2-.1.4-.1Zm-2.8-4.58c.3 0 .6.4.8 0l-1.41-1.7c-.4.2 0 .4-.1.6-.2.3-1.7.5-2.1.6.1-.4.6-1.69.8-1.79.4-.3.6.3.8-.1l-1.8-2.09c-.2-.2-.4-.7-.6-.4 0 0 0 1-.1 1.1-.11.2-.61 2.39-1.21 2.89-.3.3-1.5 1.29-1.8 1.39-.3.1-.5-.4-.81 0l1.6 1.89c.1.1.4.6.5.6.3.1 0-.6.1-.7.1-.3 1.61-1.8 2.31-1.9.9-.19 2-.49 3.01-.39-.2 0 .2 0 0 0Zm24.26 6.67c.1.4.2.9.1 1.29-.1.6-.6 1.89-1.4 1.5-.8-.4-1.4-1.1-2.11-1.7.5-.6 1-1.1 1.9-.8.2.1.4 0 .2-.2-.3-.2-2-1.29-2.1-1.19-.2.2.3.6.1 1-.1.3-.4.5-.6.8-.5-.4-1.2-.8-.7-1.5.4-.4.8-.8 1.4-.9.4-.1 1.2.3 1.3-.1-.7-.3-1.4-.7-2.1-.99.1.5-2.2 2.89-2.7 3.48-.1.1-.41.4-.41.5 0 .3.4.1.4.1.3-.1 4.41 3.28 4.51 3.58.1.2-.1.4 0 .5 0 0 .1.1.2.1.3-.3 2.91-3.88 3.51-3.98l-1.5-2.39c-.4.2-.1.7 0 .9Zm-4.01 4.37c-1.3-.9-3.61.8-4.01 1-.7.3-1.2-.4-.8-1 .3-.5.9-.8 1.5-.8.2 0 .9.1.9 0 .1-.1.1-.1 0-.2-.6-.39-1.1-.79-1.7-1.09-.1.7-.9 1.1-1.3 1.6-.5.6-1.01 1.29-1.01 1.99s.4 1.39 1.1 1.69c.7.4 1.5.1 2.21-.3.4-.3.8-.6 1.2-.8.6-.3 1.5 0 1.3.8-.2.7-.9 1.3-1.6 1.5-.4.1-.8.1-1.2-.1-.3-.1-.6-.5-.8-.1l2.3 1.58c.1-.5.3-.7.7-.99.5-.4.9-.9 1.3-1.4.81-.89 1.11-2.48-.1-3.38Zm17.65-27.95c0 .1 0 .1 0 0l-.9 1-.8.99c-.2.2-.3.3 0 .5.5-.3 3.5 4.77 3.3 5.47-.5.2-4.51-3.29-4.61-3.49 0-.1.2-.7-.1-.6-.1 0-.5.6-.6.7l-.6.7c.2.3.3 0 .6 0 .2.1 1.2.9 1.5 1.1-.5 0-1.7.1-1.9.1-.6.1-.3-.4-.7-.6l-1.5 1.79-.91 1v.1c.2.2.1.1.4 0 .3-.1 4.31 3.18 4.41 3.38.2.3-.1.6.3.8l1.2-1.4c.1-.1.1-.1 0-.1-.3-.2-.3.1-.7.1-.3-.1-2.9-2.19-3.8-2.99l5.3-.2c.2 0 .71.6.71.8-.1.2-.3.4 0 .5.3-.4.6-.7.9-1.1l.1-.2c.1 0 .1-.1.1-.2l.1-.1c.3-.3 1.2-1.29 1.1-1.39-.3-.3-.4.3-.8 0-.2-.2-.8-1.2-.9-1.39-.2-.3.4-.6.6-.7.5-.3 2.1-.8 2.31.2 0 .2-.2.4-.1.5 0 0 .1.2.2.1l2.1-2.59-.2-.2c-.5.5-5.51-1.49-5.81-1.79-.1-.2-.1-.8-.3-.8Zm-.2 2.58c.8.3 1.5.6 2.3 1l-.6.3c-.2.1-.4.3-.6.5l-1.1-1.8Zm-6.62 7.67c-1.1-.1-2.2.4-3 1.29-1.21 1.5-1.11 3.68.4 4.87 1.5 1.2 3.7.9 4.9-.5 1.2-1.49 1.1-3.68-.4-4.87-.5-.4-1.2-.7-1.9-.8Zm-1.4 1.59c.6 0 1.3.4 1.7.7.8.5 2.2 1.68 1.5 2.68 0-.1.1-.1-.1.1-.8.8-2.2.1-2.9-.5-.7-.5-2.01-1.69-1.2-2.68.3-.2.6-.3 1-.3Zm-3.11 4.27c-1.2-.1-2.41.5-3.31 1.6-.6.8-1.3 1.49-1.9 2.29.2.3.5-.1.8.1.3.2 4.1 3.28 4.1 3.48.1.3-.2.4.1.6.1.1 2.91-3.39 3.21-3.99.4-1.09.1-2.38-.8-3.18.1.1.2.1 0 0-.8-.6-1.5-.9-2.2-.9Zm-1.1 1.6h.3c1.4.4 3.4 2.09 2.1 3.58l-.4.4c-.2.2-4.21-2.99-4.01-3.19.4-.5 1.3-.9 2-.8Z" fill="white"/></svg>
